assets/images/about/logo-4.svg

<svg width="148" height="20" viewBox="0 0 148 20" fill="none" xmlns="http://www.w3.org/2000/svg">
<path d="M105.695 12.6409C105.695 13.9096 105.948 14.7631 106.456 15.2244C106.963 15.6627 107.932 15.8934 109.339 15.8934H110.285L108.855 19.7687H108.232C105.625 19.7687 103.78 19.2612 102.696 18.2463C101.612 17.2313 101.058 15.5243 101.058 13.1253V7.01247C101.058 4.38279 101.589 2.56047 102.627 1.56858C103.665 0.576683 105.556 0.0922693 108.232 0.0922693H111.254L109.801 3.94451H109.408C107.955 3.94451 106.963 4.17519 106.456 4.6596C105.948 5.14402 105.695 6.06671 105.695 7.45075V12.6409ZM4.6596 12.9638H0C0 15.5935 0.461347 17.3928 1.38404 18.3155C2.30673 19.2382 4.19825 19.6995 7.03554 19.6995H15.6858C18.3847 19.6995 20.2301 19.2151 21.245 18.2232C22.26 17.2313 22.7675 15.432 22.7675 12.8254V7.28928C22.7675 4.47506 22.2369 2.53741 21.1527 1.52244C20.0916 0.507481 18.1079 0 15.2475 0H7.49688C4.95948 0 3.13716 0.438279 2.02993 1.31484C0.668953 2.37594 0 4.19825 0 6.7818H4.6596C4.6596 5.74377 4.93641 5.00561 5.51309 4.54426C6.08978 4.08292 7.03554 3.85224 8.39651 3.85224H14.3709C15.9165 3.85224 16.9314 4.08292 17.4158 4.5212C17.9002 4.95948 18.1309 5.9283 18.1309 7.45075V7.95823H11.3953V11.9258H18.1309V12.2949C18.1309 13.7251 17.831 14.6939 17.2544 15.1783C16.7469 15.6166 15.7781 15.8242 14.3709 15.8242H8.39651C6.96633 15.8242 5.99751 15.6397 5.51309 15.2936C4.93641 14.8784 4.6596 14.0941 4.6596 12.9638ZM24.1515 19.7687H29.5262L37.5998 4.15212H38.1534L46.3653 19.7687H51.6939L41.2675 0.276808H34.5318L24.1515 19.7687ZM57.899 0.276808V7.56608H60.644L69.1559 0.276808H76.1453L64.6577 9.43454L76.5835 19.7687H69.7325L60.7363 11.4414H57.899V19.7687H53.2394V0.276808H57.899ZM83.2269 14.0249V19.7687H78.5673V0.276808H91.8311C94.2993 0.276808 96.0524 0.807357 97.1135 1.84539C98.1515 2.88342 98.682 4.63653 98.682 7.10474C98.682 9.57294 98.1515 11.3491 97.1135 12.4102C96.0754 13.4713 94.3223 14.0249 91.9003 14.0249H83.2269ZM83.2269 10.1496H91.0006C92.1309 10.1496 92.9383 9.91895 93.3766 9.45761C93.8148 8.99626 94.0455 8.21197 94.0455 7.10474C94.0455 6.06671 93.8379 5.32855 93.4458 4.91334C93.0075 4.40586 92.1771 4.15212 91.0006 4.15212H83.2269V10.1496ZM131.299 0.276808V7.77369H143.34V0.276808H148V19.7687H143.34V11.649H131.299V19.7918H126.64V0.276808H131.299ZM112.638 15.8934H115.521C117.021 15.8934 117.989 15.6858 118.474 15.2475C118.935 14.8092 119.166 13.9327 119.166 12.6178V7.42768C119.166 6.04364 118.912 5.12095 118.382 4.6596C117.92 4.24439 117.067 4.01372 115.844 3.96758L113.099 8.81172H117.228L112.638 15.8934ZM116.167 0.069202H116.767C119.281 0.069202 121.08 0.530549 122.095 1.47631C123.226 2.51434 123.802 4.33666 123.802 7.01247V13.1253C123.802 15.5935 123.295 17.3236 122.303 18.2924C121.311 19.2843 119.466 19.7687 116.767 19.7687H110.147L113.491 10.7032H108.97L112.892 0.069202H116.167Z" fill="#313131"/>
</svg>

<svg width="148" height="20" fill="none" xmlns="http://www.w3.org/2000/svg"><path d="M105.695 12.64c0 1.27.253 2.123.761 2.584.507.439 1.476.67 2.883.67h.946l-1.43 3.875h-.623c-2.607 0-4.452-.508-5.536-1.523-1.084-1.015-1.638-2.722-1.638-5.12V7.011c0-2.63.531-4.452 1.569-5.443 1.038-.992 2.929-1.477 5.605-1.477h3.022l-1.453 3.853h-.393c-1.453 0-2.445.23-2.952.715-.508.484-.761 1.407-.761 2.79v5.19zM4.66 12.965H0c0 2.63.461 4.429 1.384 5.351.923.923 2.814 1.384 5.652 1.384h8.65c2.699 0 4.544-.484 5.559-1.476 1.015-.992 1.522-2.791 1.522-5.398V7.29c0-2.814-.53-4.752-1.614-5.767C20.092.507 18.108 0 15.248 0H7.497C4.959 0 3.137.438 2.03 1.315.669 2.375 0 4.198 0 6.782h4.66c0-1.038.276-1.776.853-2.238.577-.461 1.523-.692 2.884-.692h5.974c1.545 0 2.56.23 3.045.67.484.437.715 1.406.715 2.929v.507h-6.736v3.968h6.736v.369c0 1.43-.3 2.399-.877 2.883-.507.439-1.476.646-2.883.646H8.397c-1.43 0-2.4-.184-2.884-.53-.577-.416-.853-1.2-.853-2.33zm19.491 6.805h5.375L37.6 4.152h.553l8.212 15.617h5.329L41.267.277h-6.735l-10.38 19.492zM57.9.277v7.29h2.745l8.512-7.29h6.99l-11.49 9.158 11.925 10.334h-6.85l-8.997-8.328H57.9v8.328h-4.66V.277h4.66zm25.328 13.748v5.744h-4.66V.277h13.264c2.468 0 4.221.53 5.282 1.568 1.038 1.038 1.569 2.792 1.569 5.26s-.53 4.244-1.569 5.305c-1.038 1.061-2.79 1.615-5.213 1.615h-8.673zm0-3.875H91c1.13 0 1.937-.231 2.376-.692.438-.462.669-1.246.669-2.353 0-1.038-.208-1.776-.6-2.192-.439-.507-1.269-.76-2.445-.76h-7.774v5.997zM131.299.277v7.497h12.041V.277H148v19.492h-4.66v-8.12h-12.041v8.143h-4.659V.277h4.659zm-18.661 15.616h2.883c1.5 0 2.468-.207 2.953-.646.461-.438.692-1.314.692-2.63v-5.19c0-1.383-.254-2.306-.784-2.767-.462-.416-1.315-.646-2.538-.692l-2.745 4.844h4.129l-4.59 7.081zM116.167.07h.6c2.514 0 4.313.462 5.328 1.407 1.131 1.038 1.707 2.86 1.707 5.536v6.113c0 2.469-.507 4.199-1.499 5.167-.992.992-2.837 1.477-5.536 1.477h-6.62l3.344-9.066h-4.521L112.892.07h3.275z" fill="#313131"/></svg>
